X:1
T:Title
%%score { 1 | 2 }
L:1/8
M:3/4
K:Eb
V:1 treble nm="Grand Piano"
V:2 bass 
V:1
 z2 z2[Q:1/4=100] [GB][GB] | [GB]3 [Ge] [Bd][Ac] | [Ac]2 [GB]2 EF | GA G2 [DF]2 |[M:2/4] E4 | %5
[M:1/4] B>G |[M:3/4] E2 E2 [Ec]>[CEA] | [DF]2 [DF]2 [DB]>[B,DG] | [=A,E][A,EF] [B,EG]2 [_A,DF]2 | %9
[M:2/4] [G,E]4 |[M:1/4] [GB][GB] |[M:3/4] [GB]4 [Ge]2 | ec c2 [GB][Ac] | [GB][Ge] [Fd]2 [Ec]2 | %14
 [DB]4 B>G | E2 E2 [Ec]>[CEA] | [DF]2 [DF]2 [DB]>[B,DG] | [=A,E][A,EF] [B,EG]2 [_A,DF]2 | %18
[M:2/4] [G,E]4 |] %19
V:2
 z2 z2 [E,E][E,E] | [E,E]3 [E,E] [E,E][E,E] | [E,E]2 [E,E]2 [E,G,][E,A,E] | %3
 [E,B,E][E,CE] [E,B,E]2 [B,,A,]2 |[M:2/4] [E,G,]4 |[M:1/4] [E,G,E]>[E,B,E] | %6
[M:3/4] [E,G,B,]2 [E,G,B,]2 [A,,A,]>A,, | [B,,B,]2 [B,,B,]2 [B,,F,]>B,, | C,C, B,,2 B,,2 | %9
[M:2/4] E,4 |[M:1/4] [E,E][E,E] |[M:3/4] [E,E]4 [E,B,]2 | [A,CA][A,EA] [A,EA]2[K:bass] [E,E][E,E] | %13
 [E,E][E,B,] [F,B,]2 [F,=A,]2 | [B,,B,]4 [E,G,E]>[E,B,E] | [E,G,B,]2 [E,G,B,]2 [A,,A,]>A,, | %16
 [B,,B,]2 [B,,B,]2 [B,,F,]>B,, | C,C, B,,2 B,,2 |[M:2/4] E,4 |] %19

